X: 101434
T: John Fennell's
S: B.Breathnach: "Ceol Rince na hEireann" II/51 (gan ainm)
Z: B.Black
L: 1/8
M: 6/8
R: jig
K: Edor
D|EEE BAF|EAF FED|EEE BAF|FAF E2D|
EEE BAF|EAF FED|EDE BAF|FED E2 :|
e|BBB def|edB AFD|BBB def|edB e2d|
BBB def|edB AFD|EDE BAF|FED E2 :|
